flaticon/romance-lifestyle/lesbian.svg

<svg xmlns="http://www.w3.org/2000/svg" width="32" height="32" viewBox="0 0 24 24">
    <path d="M 16.472656 17.886719 C 16.265625 17.804688 16.019531 17.96875 15.980469 18.175781 C 15.734375 19.324219 15.117188 20.390625 14.257812 21.25 C 11.710938 23.792969 7.527344 23.792969 4.984375 21.25 C 3.753906 20.019531 3.054688 18.378906 3.054688 16.617188 C 3.054688 14.851562 3.753906 13.210938 4.984375 11.980469 C 7.527344 9.4375 11.710938 9.4375 14.257812 11.980469 C 14.707031 12.390625 15.078125 12.882812 15.363281 13.414062 C 15.488281 13.621094 15.734375 13.703125 15.9375 13.578125 C 16.144531 13.457031 16.226562 13.210938 16.101562 13.003906 C 15.773438 12.429688 15.363281 11.898438 14.871094 11.40625 C 12.050781 8.621094 7.570312 8.535156 4.683594 11.144531 L 2.972656 9.4375 L 4.125 8.289062 C 4.289062 8.125 4.289062 7.878906 4.125 7.710938 C 3.957031 7.546875 3.710938 7.546875 3.546875 7.710938 L 2.398438 8.863281 L 1.660156 8.125 C 1.496094 7.960938 1.25 7.960938 1.085938 8.125 C 0.921875 8.289062 0.921875 8.535156 1.085938 8.699219 L 1.824219 9.4375 L 0.675781 10.585938 C 0.511719 10.75 0.511719 10.996094 0.675781 11.160156 C 0.757812 11.242188 0.839844 11.28125 0.964844 11.28125 C 1.046875 11.28125 1.167969 11.242188 1.25 11.160156 L 2.398438 10.011719 L 4.113281 11.722656 C 2.90625 13.074219 2.234375 14.792969 2.234375 16.617188 C 2.234375 18.585938 3.015625 20.429688 4.410156 21.824219 C 5.847656 23.261719 7.734375 24 9.621094 24 C 11.507812 24 13.394531 23.300781 14.789062 21.867188 C 15.773438 20.882812 16.429688 19.691406 16.757812 18.378906 C 16.839844 18.175781 16.675781 17.929688 16.472656 17.886719 Z M 16.472656 17.886719"/>
    <path d="M 23.324219 2.996094 L 22.152344 1.824219 L 23.160156 0.820312 C 23.324219 0.65625 23.324219 0.410156 23.160156 0.246094 C 22.996094 0.0820312 22.75 0.0820312 22.585938 0.246094 L 21.578125 1.25 L 20.453125 0.125 C 20.289062 -0.0429688 20.042969 -0.0429688 19.875 0.125 C 19.710938 0.289062 19.710938 0.535156 19.875 0.699219 L 21.003906 1.824219 L 19.558594 3.273438 C 16.632812 0.703125 12.183594 0.800781 9.414062 3.570312 C 8.347656 4.636719 7.609375 5.988281 7.363281 7.507812 C 7.324219 7.753906 7.488281 7.957031 7.691406 8 C 7.9375 8.039062 8.144531 7.875 8.183594 7.671875 C 8.390625 6.359375 9.046875 5.128906 9.988281 4.183594 C 12.535156 1.640625 16.71875 1.640625 19.300781 4.144531 C 21.847656 6.6875 21.847656 10.871094 19.300781 13.414062 C 16.757812 15.957031 12.574219 15.957031 10.03125 13.414062 C 9.578125 12.964844 9.167969 12.472656 8.882812 11.898438 C 8.757812 11.691406 8.511719 11.609375 8.308594 11.734375 C 8.101562 11.855469 8.019531 12.101562 8.144531 12.308594 C 8.472656 12.921875 8.921875 13.539062 9.414062 14.03125 C 10.851562 15.464844 12.738281 16.203125 14.625 16.203125 C 16.511719 16.203125 18.398438 15.464844 19.878906 14.03125 C 22.660156 11.207031 22.746094 6.730469 20.136719 3.84375 L 21.578125 2.398438 L 22.75 3.570312 C 22.832031 3.652344 22.914062 3.691406 23.035156 3.691406 C 23.160156 3.691406 23.242188 3.652344 23.324219 3.570312 C 23.488281 3.40625 23.488281 3.160156 23.324219 2.996094 Z M 23.324219 2.996094"/>
</svg>

<svg xmlns="http://www.w3.org/2000/svg" width="32" height="32" viewBox="0 0 24 24">
    <path d="M16.473 17.887c-.207-.082-.453.082-.493.289-.246 1.148-.863 2.215-1.722 3.074-2.547 2.543-6.73 2.543-9.274 0a6.516 6.516 0 0 1-1.93-4.633c0-1.765.7-3.406 1.93-4.637 2.543-2.543 6.727-2.543 9.274 0 .449.41.82.903 1.105 1.434.125.207.371.29.575.164.207-.121.289-.367.164-.574a7.562 7.562 0 0 0-1.23-1.598c-2.821-2.785-7.302-2.87-10.188-.261L2.973 9.438l1.152-1.149a.401.401 0 0 0 0-.578.401.401 0 0 0-.578 0L2.398 8.863l-.738-.738a.396.396 0 0 0-.574 0 .396.396 0 0 0 0 .574l.738.739-1.148 1.148a.396.396 0 0 0 0 .574.372.372 0 0 0 .289.121c.082 0 .203-.039.285-.12l1.148-1.15 1.715 1.712a7.311 7.311 0 0 0-1.879 4.894c0 1.969.782 3.813 2.176 5.207A7.367 7.367 0 0 0 9.621 24c1.887 0 3.774-.7 5.168-2.133a7.435 7.435 0 0 0 1.969-3.488c.082-.203-.082-.45-.285-.492zm0 0"/>
    <path d="M23.324 2.996l-1.172-1.172L23.16.82a.396.396 0 0 0 0-.574.396.396 0 0 0-.574 0L21.578 1.25 20.453.125a.395.395 0 0 0-.578 0 .396.396 0 0 0 0 .574l1.129 1.125-1.445 1.45C16.633.703 12.184.8 9.414 3.57 8.348 4.637 7.61 5.988 7.364 7.508A.43.43 0 0 0 7.69 8a.427.427 0 0 0 .493-.328c.207-1.313.863-2.543 1.804-3.488 2.547-2.543 6.73-2.543 9.313-.04 2.547 2.543 2.547 6.727 0 9.27-2.543 2.543-6.727 2.543-9.27 0-.453-.45-.863-.941-1.148-1.516-.125-.207-.371-.289-.574-.164-.207.121-.29.368-.164.575.328.613.777 1.23 1.27 1.722a7.38 7.38 0 0 0 5.21 2.172c1.887 0 3.773-.738 5.254-2.172 2.781-2.824 2.867-7.3.258-10.187l1.441-1.446L22.75 3.57a.37.37 0 0 0 .285.121c.125 0 .207-.039.29-.12a.396.396 0 0 0 0-.575zm0 0"/>
</svg>
